X:45
T:45 Wentworth House
C:Welch MS
I:abc2nwc
M:2/4
L:1/16
K:G
G2GA G2D2|G2B2 d4|c2cd B2Bc|A2AB GFED|
G2GA G2D2|G2B2 d4|c2cd B2Bc|BAGF G4:|
d2d2 edcB|c2c2 dcBA|B2B2 cBAG|FGAB A2D2|
d2d2 edcB|c2c2 dcdc|B2B2 cBAG|FGAF G4:|


